X:7
T:Reel des vacanciers
C:Yvon Cuillerier
Z:robin.beech@mcgill.ca
R:reel
M:2/4
L:1/16
K:Dm
DE | F2EF DFED | A,DFA dAFD | EC=B,C G,B,CD | Ec=Bd c_BGE |
F2EF DFED | A,DFA dAFD | ECC=B, CDEF | GEFE "Fine" D2 ::
A^c | dfag fdAF | dAFd AFDF | BFDB FDBF | EA,^CE A=B^cA |
dfag fdAF | dAFd AFDF | BFDB AFDF | EA,"D.C. al Fine"^CE F2 :|
